public/icons/ts.svg

<svg width="64" height="64" viewBox="0 0 64 64" fill="none" xmlns="http://www.w3.org/2000/svg">
<g clip-path="url(#clip0_88_1360)">
<path d="M60.8711 2.01291e-06L2.12891 2.17847e-07C-1.80828 9.75336e-08 -5 2.79822 -5 6.25L-5 57.75C-5 61.2018 -1.80828 64 2.1289 64L60.8711 64C64.8083 64 68 61.2018 68 57.75L68 6.25C68 2.79822 64.8083 2.13322e-06 60.8711 2.01291e-06Z" fill="#3178C6"/>
<path fill-rule="evenodd" clip-rule="evenodd" d="M39.625 50.8749L39.625 57.1249C40.6375 57.6499 41.875 58.0374 43.25 58.2999C44.625 58.5624 46.125 58.6874 47.625 58.6874C49.125 58.6874 50.5 58.5499 51.875 58.2624C53.25 57.9749 54.375 57.4999 55.375 56.8874C56.3875 56.2249 57.25 55.3874 57.75 54.2624C58.25 53.1374 58.6375 51.8874 58.6375 50.2624C58.6375 49.1249 58.4625 48.1374 58.125 47.2624C57.7875 46.3874 57.3 45.6374 56.625 45.0124C55.9875 44.3499 55.25 43.7624 54.375 43.2624C53.5 42.7624 52.5 42.2374 51.375 41.7624C50.55 41.4249 49.875 41.0999 49.125 40.7749C48.475 40.4499 47.9125 40.1248 47.5 39.7998C47.0375 39.4623 46.6875 39.1123 46.4375 38.7498C46.1875 38.3748 46.0625 37.9623 46.0625 37.4998C46.0625 37.0748 46.1738 36.6874 46.4 36.3374C46.6263 35.9874 46.9375 35.6999 47.3375 35.4498C47.7375 35.1998 48.2375 35.0123 48.8375 34.8748C49.425 34.7373 50.075 34.6748 50.8375 34.6748C51.3625 34.6748 51.9125 34.7136 52.4625 34.7923C53.0375 34.8711 53.625 34.9923 54.2125 35.1548C54.8 35.3173 55.375 35.5174 55.9625 35.7674C56.5125 36.0174 57.025 36.3049 57.4625 36.6299L57.4625 30.7548C56.5125 30.3923 55.4625 30.1173 54.3375 29.9423C53.2125 29.7673 51.9625 29.6798 50.4625 29.6798C48.9625 29.6798 47.5875 29.8423 46.2125 30.1548C44.8375 30.4673 43.7125 30.9673 42.7125 31.6548C41.7 32.3298 40.9625 33.1548 40.3375 34.2798C39.75 35.3298 39.4625 36.5298 39.4625 38.0298C39.4625 39.9048 40 41.5298 41.0875 42.7798C42.1625 44.1548 43.8375 45.1548 45.9625 46.1548C46.825 46.5048 47.5875 46.8549 48.3375 47.1924C49.0875 47.5299 49.7125 47.8799 50.2125 48.2424C50.75 48.6049 51.175 49.0049 51.4625 49.4299C51.775 49.8549 51.9375 50.3549 51.9375 50.9299C51.9375 51.3299 51.84 51.7049 51.65 52.0549C51.46 52.4049 51.1625 52.7049 50.7625 52.9549C50.3625 53.2049 49.875 53.4049 49.2625 53.5549C48.675 53.6924 48.0125 53.7674 47.1375 53.7674C45.7625 53.7674 44.3875 53.5299 43.1375 53.0549C41.7625 52.5799 40.5125 51.8674 39.3875 50.9299L39.625 50.8749ZM29.125 35.4998L37.125 35.4998L37.125 30.3748L14.75 30.3748L14.75 35.4998L22.75 35.4998L22.75 58.3749L29.125 58.3749L29.125 35.4998Z" fill="white"/>
</g>
<defs>
<clipPath id="clip0_88_1360">
<rect width="64" height="64" fill="white"/>
</clipPath>
</defs>
</svg>

<svg xmlns="http://www.w3.org/2000/svg" width="64" height="64" fill="none"><g clip-path="url(#a)"><path fill="#3178C6" d="M60.871 0H2.13C-1.808 0-5 2.798-5 6.25v51.5C-5 61.202-1.808 64 2.129 64H60.87C64.808 64 68 61.202 68 57.75V6.25C68 2.798 64.808 0 60.871 0Z"/><path fill="#fff" fill-rule="evenodd" d="M39.625 50.875v6.25c1.013.525 2.25.912 3.625 1.175 1.375.262 2.875.387 4.375.387s2.875-.137 4.25-.425c1.375-.287 2.5-.762 3.5-1.375 1.013-.662 1.875-1.5 2.375-2.625s.888-2.375.888-4c0-1.137-.175-2.125-.513-3-.337-.875-.825-1.625-1.5-2.25a9.928 9.928 0 0 0-2.25-1.75 27.913 27.913 0 0 0-3-1.5c-.825-.337-1.5-.662-2.25-.987-.65-.325-1.212-.65-1.625-.975-.462-.338-.813-.688-1.063-1.05a2.195 2.195 0 0 1-.374-1.25c0-.425.11-.813.337-1.163.226-.35.538-.637.938-.887.4-.25.9-.438 1.5-.575.587-.138 1.237-.2 2-.2.524 0 1.075.039 1.624.117a13.89 13.89 0 0 1 3.5.975c.55.25 1.063.538 1.5.863v-5.875c-.95-.363-2-.638-3.125-.813-1.125-.175-2.375-.262-3.875-.262s-2.875.162-4.25.475c-1.375.312-2.5.812-3.5 1.5-1.012.675-1.75 1.5-2.375 2.625-.587 1.05-.875 2.25-.875 3.75 0 1.875.538 3.5 1.625 4.75 1.075 1.375 2.75 2.375 4.875 3.375.863.35 1.625.7 2.375 1.037.75.338 1.375.688 1.875 1.05.538.363.963.763 1.25 1.188.313.425.475.925.475 1.5 0 .4-.097.775-.287 1.125-.19.35-.487.65-.887.9s-.888.45-1.5.6c-.588.137-1.25.212-2.125.212-1.375 0-2.75-.237-4-.712a11.88 11.88 0 0 1-3.75-2.125l.237-.055ZM29.125 35.5h8v-5.125H14.75V35.5h8v22.875h6.375V35.5Z" clip-rule="evenodd"/></g><defs><clipPath id="a"><path fill="#fff" d="M0 0h64v64H0z"/></clipPath></defs></svg>
